X:95
T:Saddle the Pony
M:6/8
L:1/8
Q:120
S:THSP
R:jig
K:G
"G"GBA G2B|def gdB|GBA G2B|"D"AFD AFD|
"G"GBA G2B|def gfg|(3efg e dBA|1 "D"BGF "G"G2D:|2 "D"BGF "G"GBd||:
"Em"efe edB|def ~g3|efe edB|dBA "D"A2d|
"Em"efe edB|def ~g3|"G"(3efg e dBA|1 "D"BGF "G"GBd:|2 "D"BGF "G"G2D|]
